X:90
T: Hongling Qian dao ousi gen
N: C1583
O: China,nan Jiangsu, Danyang
S: III, 487]
R: Shange, Mengjiangn diao. Nann qing]
M: 4/4
L: 1/16
K: G
d2e2d2ee-e4d2e2 | a16 |
(3g2a2b2a3ge4a4 | b2a2a2ged4z4 |
d2e2d2e2d2e2d2e2 | d2e2d2e2d2e2d2e2 |
d2e2d2e2g6ab | d6edB6BA | gabda8e4 | a2g6edd6

@@@ Tune index: 6645
